assets/img/vo-logo-horizontal.svg

<?xml version="1.0" encoding="UTF-8"?>
<svg width="330px" height="80px" viewBox="0 0 330 80" version="1.1" xmlns="http://www.w3.org/2000/svg" xmlns:xlink="http://www.w3.org/1999/xlink">
    <!-- Generator: Sketch 46.2 (44496) - http://www.bohemiancoding.com/sketch -->
    <title>vo-logo</title>
    <desc>Created with Sketch.</desc>
    <defs></defs>
    <g id="horizontal" stroke="none" stroke-width="1" fill="none" fill-rule="evenodd">
        <g id="vo-logo">
            <path d="M291.764199,52.3618818 C287.763202,52.3618818 285.822299,48.7424668 285.822299,45.0639324 C285.822299,39.7832651 288.706299,37.5281921 291.764199,37.5281921 C295.292996,37.5281921 297.705448,40.4953242 297.705448,45.0639324 C297.705448,49.7507793 294.940638,52.3618818 291.764199,52.3618818 L291.764199,52.3618818 Z M254.588731,51.3529124 C248.293821,51.3529124 243.234445,45.8942302 243.234445,38.656057 C243.234445,31.7141373 248.293821,26.4925892 254.588731,26.4925892 C260.882339,26.4925892 265.942366,31.7141373 265.942366,38.656057 C265.942366,45.8942302 260.882339,51.3529124 254.588731,51.3529124 L254.588731,51.3529124 Z M195.940877,52.3021056 C192.234924,52.3021056 189.058485,49.5136452 189.058485,44.945037 C189.058485,40.3173094 192.234924,37.4092967 195.940877,37.4092967 C199.647482,37.4092967 202.82392,40.3173094 202.82392,44.945037 C202.82392,49.5136452 199.647482,52.3021056 195.940877,52.3021056 L195.940877,52.3021056 Z M319,37 C323.23612,37 325,40 325,40 L329,32 C329,32 326.059548,29 319,29 C312.502532,29 306.709928,31.9571236 306,37 C303.850677,31.9781438 302.033203,29 294,29 C285.966797,29 285,33 285,33 C285,33 285,32.0148575 285,30.0445724 L276,30.0445724 L275.939322,33.2085418 C273.620007,23.7737582 265.732936,17 255,17 C244.888413,17 236.533117,23.0130898 233.705781,31.5972124 L234,29.0445724 C234,29.0445724 233.117648,29.0445724 232.529515,29.0445724 C227.999654,29.0445724 223.996704,33 223,37 C223,37 223,34.6666667 223,30 L213.116571,30 L213.116571,44.8832901 C213.082703,35.3059633 205.568394,29.0445724 196,29.0445724 C186.528,29.0445724 178.76388,35.3335523 178.76388,44.945037 C178.76388,47.2999558 179.471203,52 179.000957,52 C177.059402,52 174,51.4407434 174,48 L174,38 L180,38 L180,30 L174,30 L174,22 L164,22 L164,30 L160,30 L160,32 C158.098175,30.6744139 154.069336,29.0445724 149,29 C140.919019,28.9289476 135.977905,33.5529785 134,39.0712059 L134,30 L124,30 L124,61 L134,61 L134,51.026123 C134.636841,55.2720947 140.949158,61 149,61 C157.470937,61 162.413396,55.8026251 162.413396,55.8026251 L158.707442,48.6229144 C158.707442,48.6229144 154.235468,52 150,52 C144.882007,52 142.823947,48.3260041 142.823947,44.707246 C142.823947,41.087831 145.235096,37.4092967 150.059349,37.4092967 C154.2362,37.4092967 157.178166,40.3764287 157.178166,40.3764287 L160,36 L160,38 L164,38 L164,49 C164,59.2637676 172.149665,61 176.973267,61 C178.620429,61 180.075618,61 180,61 L180,52 C182.715311,57.5243703 189.055734,61 196,61 C205.509776,61 213.082703,54.5243345 213.116571,45.0067838 L213,61 L223,61 L223.29394,48.564452 C223.29394,46.9025427 223.470445,45.5388575 223.823455,44.4103357 C225.294113,39.8423844 229.235189,39.0712059 231.646339,39.0712059 C232.002605,39.0712059 232.319142,39.0869711 232.5966,39.1066775 C232.819348,51.349628 242.447304,61 255,61 C265.732936,61 273.680685,53.6679764 276,44 L276,72 L285,72 C285,62.6653003 285,57.9986337 285,58 C285.117887,58 289.05786,61 294,61 C302.059309,61 308,54.6767309 308,45.0067838 C308,44.4195321 308.040381,43.5629471 308,43 C311.661664,48.2005279 320.528651,48.9894541 320.528651,51.1157783 C320.528651,52.1240908 319.057993,52.5392397 317.528717,52.5392397 C313.174711,52.5392397 310,49 310,49 L305,57 C305,57 310.412891,61 318,61 C325.824838,61 330,56.3957888 330,51.1742407 C330,41.3256219 316,41.3853981 316,39.0712059 C316,38.0031172 317.472027,37 319,37 Z M124,26 L134,26 L134,18 L114,18 L106.883362,41.8596663 C106.060107,44.5298881 105.295469,48.6840043 105.295469,48.6840043 C105.177582,48.6840043 104.412944,44.5298881 103.589688,41.8596663 L96,18 L85,18 L100,61 L110,61 L124,23 L124,26 Z" id="typeface" fill="#231F20"></path>
            <g id="mark">
                <path d="M80,40.0003932 C80,62.0918874 62.0903148,80 39.9992137,80 C17.9085057,80 0,62.0918874 0,40.0003932 C0,17.9088989 17.9085057,0 39.9992137,0 C62.0903148,0 80,17.9088989 80,40.0003932 Z" id="circle" fill="#FBB040"></path>
                <polygon id="oakleaf" fill="#2D2D2D" points="59.0029101 41.2807953 56.3567988 36.7172642 61.9386475 28.7886969 46.5102733 36.2430945 46.1967332 34.0005414 50.7051057 26.6462865 50.0586665 25.4349218 52.1399502 16.7880618 44.0516786 25.3082352 43.566185 20.6027347 45.9845432 13.5477013 42.7565227 14.6319774 39.9380782 5.99235669 37.1207724 14.6319774 33.8927518 13.5477013 36.3114897 20.6027347 35.8263756 25.3082352 27.7369653 16.7880618 29.818249 25.4349218 29.1721893 26.6462865 33.6805619 34.0005414 33.367781 36.2430945 17.9386475 28.7886969 23.521635 36.7172642 20.8743849 41.2807953 32.7255172 47.2776943 32.9145523 49.2765266 23.9304519 46.4315086 28.4471753 52.0994247 28.8244863 53.8983737 34.3296582 56.3725823 34.895245 58.0717909 32.4279199 57.0305479 39.0824857 64.7672758 39.0824857 73.9923567 40.7936706 73.9923567 40.7936706 64.7672758 47.4493752 57.0305479 44.98205 58.0717909 45.5480165 56.3725823 51.0535679 53.8983737 51.4312585 52.0994247 55.9464636 46.4315086 46.9631224 49.2765266 47.1510187 47.2776943"></polygon>
            </g>
        </g>
    </g>
</svg>

<svg width="330" height="80" viewBox="0 0 330 80" xmlns="http://www.w3.org/2000/svg"><title>vo-logo</title><g fill="none" fill-rule="evenodd"><path d="M291.764 52.362c-4 0-5.942-3.62-5.942-7.298 0-5.28 2.884-7.536 5.942-7.536 3.529 0 5.941 2.967 5.941 7.536 0 4.687-2.764 7.298-5.94 7.298zm-37.175-1.01c-6.295 0-11.355-5.458-11.355-12.696 0-6.942 5.06-12.163 11.355-12.163 6.293 0 11.353 5.221 11.353 12.163 0 7.238-5.06 12.697-11.353 12.697zm-58.648.95c-3.706 0-6.883-2.788-6.883-7.357 0-4.628 3.177-7.536 6.883-7.536s6.883 2.908 6.883 7.536c0 4.569-3.177 7.357-6.883 7.357zM319 37c4.236 0 6 3 6 3l4-8s-2.94-3-10-3c-6.497 0-12.29 2.957-13 8-2.15-5.022-3.967-8-12-8s-9 4-9 4v-2.955h-9l-.06 3.164C273.62 23.774 265.732 17 255 17c-10.112 0-18.467 6.013-21.294 14.597l.294-2.552h-1.47C228 29.045 223.997 33 223 37v-7h-9.883v14.883c-.034-9.577-7.549-15.838-17.117-15.838-9.472 0-17.236 6.289-17.236 15.9 0 2.355.707 7.055.237 7.055-1.942 0-5.001-.56-5.001-4V38h6v-8h-6v-8h-10v8h-4v2c-1.902-1.326-5.93-2.955-11-3-8.081-.071-13.022 4.553-15 10.071V30h-10v31h10v-9.974c.637 4.246 6.95 9.974 15 9.974 8.47 0 13.413-5.197 13.413-5.197l-3.706-7.18S154.235 52 150 52c-5.118 0-7.176-3.674-7.176-7.293 0-3.62 2.411-7.298 7.235-7.298 4.177 0 7.12 2.967 7.12 2.967L160 36v2h4v11c0 10.264 8.15 12 12.973 12H180v-9c2.715 5.524 9.056 9 16 9 9.51 0 17.083-6.476 17.117-15.993L213 61h10l.294-12.436c0-1.661.176-3.025.53-4.154 1.47-4.568 5.411-5.339 7.822-5.339.357 0 .673.016.95.036C232.82 51.35 242.448 61 255 61c10.733 0 18.68-7.332 21-17v28h9V58c.118 0 4.058 3 9 3 8.06 0 14-6.323 14-15.993 0-.587.04-1.444 0-2.007 3.662 5.2 12.529 5.99 12.529 8.116 0 1.008-1.471 1.423-3 1.423C313.175 52.54 310 49 310 49l-5 8s5.413 4 13 4c7.825 0 12-4.604 12-9.826 0-9.848-14-9.789-14-12.103 0-1.068 1.472-2.071 3-2.071zM124 26h10v-8h-20l-7.117 23.86c-.823 2.67-1.588 6.824-1.588 6.824-.117 0-.882-4.154-1.705-6.824L96 18H85l15 43h10l14-38v3z" fill="#231F20"/><path d="M80 40c0 22.092-17.91 40-40 40C17.908 80 0 62.092 0 40 0 17.91 17.909 0 40 0c22.09 0 40 17.909 40 40z" fill="#FBB040"/><path fill="#2D2D2D" d="M59.003 41.28l-2.646-4.563 5.582-7.928-15.429 7.454-.313-2.242 4.508-7.355-.646-1.211 2.081-8.647-8.088 8.52-.486-4.705 2.419-7.055-3.228 1.084-2.819-8.64-2.817 8.64-3.228-1.084 2.418 7.055-.485 4.705-8.089-8.52 2.081 8.647-.646 1.211 4.509 7.355-.313 2.242-15.43-7.454 5.584 7.928-2.648 4.564 11.852 5.997.189 1.999-8.985-2.845 4.517 5.667.377 1.8 5.506 2.474.565 1.699-2.467-1.041 6.654 7.736v9.225h1.712v-9.225l6.655-7.736-2.467 1.04.566-1.698 5.506-2.475.377-1.799 4.515-5.667-8.983 2.845.188-2z"/></g></svg>
